components/AnnouncementBar/logos/color-elastic.svg

<svg width="268" height="92" viewBox="0 0 268 92" fill="none" xmlns="http://www.w3.org/2000/svg">
<path d="M92 48.2258C92 40.4941 87.2172 33.6995 80.0237 31.0832C80.3347 29.4431 80.4903 27.8031 80.4903 26.1239C80.4903 11.7148 68.825 0 54.5156 0C46.1167 0 38.3398 4.02207 33.4404 10.8166C31.0296 8.94227 28.0744 7.92699 25.0025 7.92699C17.3812 7.92699 11.1986 14.1358 11.1986 21.7895C11.1986 23.4686 11.5097 25.1087 12.0541 26.6316C4.89941 29.2088 0 36.1205 0 43.8132C0 51.584 4.82164 58.3786 12.0152 60.9949C11.7041 62.5959 11.5486 64.275 11.5486 65.9542C11.5486 80.3243 23.175 92 37.4844 92C45.8833 92 53.6602 87.9389 58.5207 81.1443C60.9315 83.0577 63.8867 84.1121 66.9586 84.1121C74.5799 84.1121 80.7625 77.9032 80.7625 70.2496C80.7625 68.5705 80.4514 66.9304 79.907 65.4075C87.0617 62.8302 92 55.9185 92 48.2258Z" fill="white"/>
<path d="M35.9453 39.8211L56.1797 49L76.5703 31.1867C76.8828 29.7087 77 28.2697 77 26.7139C77 14.1901 66.7656 4 54.1875 4C46.6484 4 39.6562 7.6949 35.3984 13.879L32 31.4201L35.9453 39.8211Z" fill="#FED10A"/>
<path d="M15.4282 60.8141C15.1168 62.2857 15 63.796 15 65.3451C15 77.8537 25.2379 88 37.8114 88C45.3633 88 52.4092 84.2823 56.6522 78.0861L60 60.6979L55.5234 52.1781L35.2811 43L15.4282 60.8141Z" fill="#24BBB1"/>
<path d="M14.68 25.713L28.88 29L32 13.2304C30.08 11.7826 27.68 11 25.2 11C19.04 11 14 15.8913 14 21.9565C14 23.2478 14.24 24.5391 14.68 25.713Z" fill="#EF5098"/>
<path d="M14.4013 29C8.292 31.0461 4 37.0271 4 43.5984C4 50.0122 7.90533 55.7178 13.744 58L33 40.2931L29.4813 32.6201L14.4013 29Z" fill="#17A8E0"/>
<path d="M60 78.7304C61.8552 80.1783 64.0891 81 66.3987 81C72.2294 81 77 76.1087 77 70.0435C77 68.713 76.7728 67.4217 76.3563 66.2478L62.9532 63L60 78.7304Z" fill="#93C83E"/>
<path d="M63.0551 59.4193L78.4094 63C84.6693 60.9539 89 54.9729 89 48.3623C89 41.9878 85.0236 36.2429 79.0787 34L59 51.5889L63.0551 59.4193Z" fill="#0779A1"/>
<path d="M128.964 64.4469L130.793 64.2524L130.91 67.9882C126.084 68.6498 121.958 69 118.533 69C113.979 69 110.749 67.6769 108.841 65.0307C106.934 62.3844 106 58.2594 106 52.6946C106 41.5649 110.437 36 119.272 36C123.554 36 126.746 37.2064 128.847 39.5802C130.949 41.954 132 45.7288 132 50.8267L131.728 54.4458H110.787C110.787 57.9481 111.41 60.5554 112.695 62.2288C113.979 63.9021 116.159 64.7583 119.311 64.7583C122.503 64.8361 125.695 64.7193 128.964 64.4469ZM127.251 50.7099C127.251 46.8184 126.629 44.0554 125.383 42.4599C124.138 40.8644 122.114 40.0472 119.311 40.0472C116.509 40.0472 114.368 40.9033 112.967 42.5767C111.566 44.25 110.826 46.9741 110.787 50.7099H127.251Z" fill="black"/>
<path d="M138 69V23H143V69H138Z" fill="black"/>
<path d="M173.121 46.2347V61.8396C173.121 63.4351 177 63.7465 177 63.7465L176.77 67.9493C173.466 67.9493 170.739 68.2217 169.088 66.6262C165.324 68.2995 161.598 69 157.834 69C154.953 69 152.764 68.1828 151.266 66.5094C149.768 64.875 149 62.5012 149 59.388C149 56.3137 149.768 54.0177 151.305 52.5778C152.841 51.138 155.261 50.204 158.564 49.8927L168.396 48.9587V46.2347C168.396 44.0943 167.936 42.5377 167.014 41.6038C166.092 40.6698 164.824 40.2028 163.25 40.2028H150.92V36H162.942C166.476 36 169.049 36.8172 170.663 38.4906C172.314 40.125 173.121 42.7323 173.121 46.2347ZM153.84 59.1545C153.84 63.046 155.414 64.9917 158.602 64.9917C161.444 64.9917 164.248 64.5248 166.975 63.5519L168.396 63.046V52.5778L159.14 53.4729C157.258 53.6285 155.914 54.1733 155.069 55.1073C154.224 56.0413 153.84 57.4033 153.84 59.1545Z" fill="black"/>
<path d="M191.726 40.2078C187.114 40.2078 184.769 41.8052 184.769 45.039C184.769 46.5195 185.316 47.5714 186.371 48.1948C187.427 48.8182 189.85 49.4416 193.642 50.1039C197.433 50.7662 200.091 51.6623 201.655 52.8701C203.218 54.039 204 56.2597 204 59.5325C204 62.8052 202.945 65.1818 200.834 66.7013C198.723 68.2208 195.674 69 191.609 69C188.99 69 180.195 68.026 180.195 68.026L180.469 63.8961C185.511 64.3636 189.186 64.7533 191.648 64.7533C194.111 64.7533 195.987 64.3636 197.277 63.5844C198.567 62.8052 199.231 61.4805 199.231 59.6493C199.231 57.8182 198.684 56.5714 197.59 55.9091C196.495 55.2468 194.072 54.6234 190.319 54.039C186.567 53.4545 183.909 52.5974 182.345 51.4286C180.782 50.2987 180 48.1558 180 45.0779C180 42 181.094 39.7013 183.283 38.2208C185.472 36.7403 188.208 36 191.453 36C194.033 36 203.023 36.6623 203.023 36.6623V40.8312C198.293 40.5584 194.423 40.2078 191.726 40.2078Z" fill="black"/>
<path d="M227.566 40.8061H217.349V55.9307C217.349 59.5374 217.625 61.9418 218.138 63.0665C218.69 64.1911 219.953 64.7729 221.964 64.7729L227.684 64.385L228 68.3019C225.12 68.7673 222.951 69 221.452 69C218.099 69 215.811 68.1856 214.509 66.5956C213.207 65.0055 212.576 61.9418 212.576 57.4432V40.8061H208V36.6953H212.576V27H217.349V36.6565H227.566V40.8061Z" fill="black"/>
<path d="M234 29.4373V24H239V29.4759L234 29.4373ZM234 68V36.5714H239V68H234Z" fill="black"/>
<path d="M259.286 36C260.693 36 263.076 36.2724 266.437 36.7783L267.961 36.9729L267.766 40.8255C264.366 40.4363 261.865 40.2417 260.263 40.2417C256.668 40.2417 254.206 41.0979 252.917 42.8101C251.627 44.5224 250.963 47.7134 250.963 52.3443C250.963 56.9752 251.549 60.2052 252.76 62.0342C253.972 63.8632 256.472 64.7583 260.302 64.7583L267.805 64.1745L268 68.1049C264.053 68.6887 261.083 69 259.13 69C254.167 69 250.728 67.7158 248.853 65.1863C246.977 62.6568 246 58.3762 246 52.3443C246 46.3125 247.016 42.0708 249.048 39.658C251.119 37.2453 254.519 36 259.286 36Z" fill="black"/>
</svg>

<svg xmlns="http://www.w3.org/2000/svg" width="268" height="92" fill="none" viewBox="0 0 268 92">
  <path fill="#fff" d="M92 48.226c0-7.732-4.783-14.526-11.976-17.143.31-1.64.466-3.28.466-4.96C80.49 11.716 68.825 0 54.516 0c-8.4 0-16.176 4.022-21.076 10.817a13.715 13.715 0 0 0-8.437-2.89c-7.622 0-13.804 6.209-13.804 13.863 0 1.679.31 3.319.855 4.842C4.9 29.209 0 36.12 0 43.813a18.218 18.218 0 0 0 12.015 17.182 26.144 26.144 0 0 0-.466 4.96C11.549 80.324 23.175 92 37.484 92c8.4 0 16.176-4.061 21.037-10.856 2.41 1.914 5.366 2.968 8.438 2.968 7.62 0 13.803-6.209 13.803-13.862 0-1.68-.31-3.32-.855-4.843C87.062 62.83 92 55.92 92 48.227Z"/>
  <path fill="#FED10A" d="M35.945 39.821 56.18 49l20.39-17.813c.313-1.478.43-2.917.43-4.473C77 14.19 66.766 4 54.187 4a22.769 22.769 0 0 0-18.789 9.879L32 31.42l3.945 8.401Z"/>
  <path fill="#24BBB1" d="M15.428 60.814c-.311 1.472-.428 2.982-.428 4.531C15 77.854 25.238 88 37.811 88a22.826 22.826 0 0 0 18.841-9.914L60 60.698l-4.477-8.52L35.281 43 15.428 60.814Z"/>
  <path fill="#EF5098" d="M14.68 25.713 28.88 29 32 13.23C30.08 11.783 27.68 11 25.2 11 19.04 11 14 15.891 14 21.956c0 1.292.24 2.583.68 3.757Z"/>
  <path fill="#17A8E0" d="M14.401 29C8.292 31.046 4 37.027 4 43.598 4 50.012 7.905 55.718 13.744 58L33 40.293l-3.519-7.673L14.401 29Z"/>
  <path fill="#93C83E" d="M60 78.73c1.855 1.448 4.09 2.27 6.399 2.27C72.229 81 77 76.109 77 70.043c0-1.33-.227-2.621-.644-3.795L62.953 63 60 78.73Z"/>
  <path fill="#0779A1" d="M63.055 59.42 78.41 63C84.67 60.954 89 54.973 89 48.362c0-6.374-3.976-12.12-9.921-14.362L59 51.589l4.055 7.83Z"/>
  <path fill="#000" d="m128.964 64.447 1.829-.195.117 3.736c-4.826.662-8.952 1.012-12.377 1.012-4.554 0-7.784-1.323-9.692-3.97-1.907-2.646-2.841-6.77-2.841-12.335C106 41.565 110.437 36 119.272 36c4.282 0 7.474 1.206 9.575 3.58 2.102 2.374 3.153 6.15 3.153 11.247l-.272 3.619h-20.941c0 3.502.623 6.11 1.908 7.783 1.284 1.673 3.464 2.53 6.616 2.53 3.192.077 6.384-.04 9.653-.312Zm-1.713-13.737c0-3.892-.622-6.655-1.868-8.25-1.245-1.596-3.269-2.413-6.072-2.413-2.802 0-4.943.856-6.344 2.53-1.401 1.673-2.141 4.397-2.18 8.133h16.464ZM138 69V23h5v46h-5Zm35.121-22.765V61.84c0 1.595 3.879 1.906 3.879 1.906l-.23 4.203c-3.304 0-6.031.273-7.682-1.323C165.324 68.3 161.598 69 157.834 69c-2.881 0-5.07-.817-6.568-2.49-1.498-1.636-2.266-4.01-2.266-7.123 0-3.074.768-5.37 2.305-6.81 1.536-1.44 3.956-2.374 7.259-2.685l9.832-.934v-2.724c0-2.14-.46-3.697-1.382-4.631-.922-.934-2.19-1.401-3.764-1.401h-12.33V36h12.022c3.534 0 6.107.817 7.721 2.49 1.651 1.635 2.458 4.242 2.458 7.745Zm-19.281 12.92c0 3.891 1.574 5.837 4.762 5.837 2.842 0 5.646-.467 8.373-1.44l1.421-.506V52.578l-9.256.895c-1.882.156-3.226.7-4.071 1.634-.845.934-1.229 2.296-1.229 4.047Zm37.886-18.947c-4.612 0-6.957 1.597-6.957 4.831 0 1.48.547 2.532 1.602 3.156 1.056.623 3.479 1.247 7.271 1.909 3.791.662 6.449 1.558 8.013 2.766 1.563 1.169 2.345 3.39 2.345 6.663 0 3.272-1.055 5.649-3.166 7.168-2.111 1.52-5.16 2.299-9.225 2.299-2.619 0-11.414-.974-11.414-.974l.274-4.13c5.042.468 8.717.857 11.179.857 2.463 0 4.339-.39 5.629-1.169 1.29-.779 1.954-2.104 1.954-3.935 0-1.83-.547-3.078-1.641-3.74-1.095-.662-3.518-1.286-7.271-1.87-3.752-.584-6.41-1.442-7.974-2.61-1.563-1.13-2.345-3.273-2.345-6.351s1.094-5.377 3.283-6.857c2.189-1.48 4.925-2.221 8.17-2.221 2.58 0 11.57.662 11.57.662v4.17c-4.73-.274-8.6-.624-11.297-.624Zm35.84.598h-10.217v15.125c0 3.606.276 6.01.789 7.136.552 1.124 1.815 1.706 3.826 1.706l5.72-.388.316 3.917c-2.88.465-5.049.698-6.548.698-3.353 0-5.641-.814-6.943-2.404-1.302-1.59-1.933-4.654-1.933-9.153V40.806H208v-4.11h4.576V27h4.773v9.657h10.217v4.15ZM234 29.437V24h5v5.476l-5-.039ZM234 68V36.571h5V68h-5Zm25.286-32c1.407 0 3.79.272 7.151.778l1.524.195-.195 3.852c-3.4-.389-5.901-.583-7.503-.583-3.595 0-6.057.856-7.346 2.568-1.29 1.712-1.954 4.903-1.954 9.534 0 4.631.586 7.861 1.797 9.69 1.212 1.83 3.712 2.724 7.542 2.724l7.503-.584.195 3.93c-3.947.585-6.917.896-8.87.896-4.963 0-8.402-1.284-10.277-3.814-1.876-2.53-2.853-6.81-2.853-12.842 0-6.032 1.016-10.273 3.048-12.686 2.071-2.413 5.471-3.658 10.238-3.658Z"/>
</svg>
